images/登录/u496.svg

﻿<?xml version="1.0" encoding="utf-8"?>
<svg version="1.1" xmlns:xlink="http://www.w3.org/1999/xlink" width="28px" height="20px" xmlns="http://www.w3.org/2000/svg">
  <g transform="matrix(1 0 0 1 -65 -57 )">
    <path d="M 18.6197021276596 6.40358543417363  C 18.1982978723405 5.84839620954763  17.522255319149 5.85204553310683  17.1036170212766 6.40358543417363  L 10.6336170212766 14.9275851957804  L 7.50391489361703 10.7551372549019  C 7.08927659574475 10.2023672447703  6.41706382978725 10.2024082484057  6.00242553191489 10.7551372549019  L 0.232851063829723 18.4471732522796  C -0.181787234042556 18.9999432624114  0.065617021276618 19.4480719947552  0.785404255319173 19.5444305381728  L 27.2195319148936 19.5444305381728  C 27.9397446808511 19.4480719947552  28.1816170212766 19.0009273496633  27.7629361702128 18.449346444961  L 18.6197021276596 6.40358543417363  Z M 9.12929311639555 2.55782127659569  C 9.12929311639555 1.14969377506306  7.93538657643229 0.00818089278271617  6.46262822277845 0.00818089278271617  C 4.98986986912469 0.00818089278271617  3.79596332916143 1.14969377506306  3.79596332916143 2.55782127659569  C 3.79596332916143 3.96594877812849  4.98986986912469 5.10746166040883  6.46262822277845 5.10746166040883  C 7.93538657643229 5.10746166040883  9.12929311639555 3.96594877812849  9.12929311639555 2.55782127659569  Z " fill-rule="nonzero" fill="#748aa1" stroke="none" transform="matrix(1 0 0 1 65 57 )" />
  </g>
</svg>

<svg xmlns="http://www.w3.org/2000/svg" width="28" height="20"><path fill="#748aa1" d="M18.62 6.404c-.422-.556-1.098-.552-1.516 0l-6.47 8.524-3.13-4.173c-.415-.553-1.087-.553-1.502 0l-5.77 7.692c-.414.553-.166 1.001.553 1.097H27.22c.72-.096.962-.543.543-1.095zM9.13 2.558c0-1.408-1.195-2.55-2.667-2.55-1.473 0-2.667 1.142-2.667 2.55s1.194 2.55 2.667 2.55 2.666-1.142 2.666-2.55"/></svg>
